X: 28
T: Cantiga 28 : Todo logar mui ben pode
N: 27 in To 
B:Cantigas de Santa Maria
F:http://www.pbm.com/~lindahl/cantigas/facsimiles/E/101small.html
F:http://www.pbm.com/~lindahl/cantigas/facsimiles/To/bob026small.gif
Z:Ali Corbin <ali.corbin:gmail.com>
M: 3/4
L: 1/4
Q: 1/4=200
K: C ionian
V:1
%Staff 1
%%MIDI program 74
%
   G E2| F  G2| A   F2| D (EF)|G (G>F)|E  (ED) |(F/E/) E2 |
w:To-do lo-gar mui ben po-de* sse-er* def-fen-* du-*   do
  G  E2|F  G2| A F2|D (EF)|G (G>F)| E (ED)|(F/E/) (ED)|(DC2)||
w:o que a San-ta Ma-ri-a*  á  por* seu es-* cu-***      do.*
  G  A2| G (A/B/c)|B (AG)| E    G2| A (G/F/E)|E   D2|(F/E/) E2 |
w:On-de da- que-**sta ra-*zon   un mi- ra-** gre vos que-*  ro
   G   A2| G (A/B/c)|B (AG)| E    G2| A (G/F/E)| E    D2|(F/E/) (ED)|(DC2) |
w:con-tar mui de**  co- ra-*çon, que fez mui** grand' e   fe-***      ro*
  G  E2| F   G2| A  F2|D   (EF)| G  (G>F)| E (ED)|(F/E/) E2 |
w:a Vir-gen que non á par, que* non quis* que per-*du-*  do
   G    E2|F  G2| A   F2 | D  (EF)|G (G>F)|E  (ED)|(F/E/) (ED)|(DC2)||
w:foss' o po-boo que guar-dar  a-* vi-a,* nen ven-* çu-***      do*
%
%%begintext center
%%
%%Esta é como Santa Maria deffendeu Costantinobre
%%dos mouros que a conbatian e a cuidavan fillar.
%%
%%
%%Todo logar mui ben pode sseer deffendudo
%%o que a Santa Maria  á por seu escudo.
%%
%%endtext
%%newpage
W:Onde daquesta razon
W:un miragre vos quero
W:contar mui de coraçon,
W:que fez mui grand' e fero
W:a Virgen que non á par,
W:que non quis que perdudo
W:foss' o poboo que guardar
W:avia, nen vençudo.
W:
W:Todo logar mui ben...
W: 
W:De com' eu escrit' achei,
W:pois que foi de crischãos
W:Costantinobre, un rei
W:con oste de pagãos
W:veo a vila cercar
W:mui brav' e mui sannudo,
W:pola per força fillar
W:por seer mais temudo.
W:
W:Todo logar mui ben...
W: 
W:E começou a dizer,
W:con sanna que avia,
W:que sse per força prender
W:a cidade podia,
W:que faria en matar
W:o poboo myudo
W:e o tesour' en levar
W:que tinian ascondudo.
W:
W:Todo logar mui ben...
W: 
W:Na cidade, com' oý,
W:se Deus m' ajud' e parca,
W:San German dentr' era y,
W:un santo Patriarcha,
W:que foi a Virgen rogar
W:que dela acorrudo
W:foss' o poblo sen tardar
W:daquel mour' atrevudo.
W:
W:Todo logar mui ben...
W:
W:E as donas ar rogou
W:da mui nobre cidade
W:mui de rrig' e conssellou
W:que ant' a majestade
W:da Virgen fossen queimar
W:candeas, que traudo
W:o poboo do logar
W:non fosse, nen rendudo.
W:
W:Todo logar mui ben...
W: 
W:Mas aquel mouro Soldan
W:fez-lles põer pedreiras
W:per' aos de dentr' afan
W:dar de muitas maneiras,
W:e os arqueiros tirar;
W:e assi combatudo
W:o muro foi sen vagar,
W:que toste foi fendudo.
W:
W:Todo logar mui ben
W:
W:E coyta soffreron tal
W:os de dentro e tanta,
W:que presos foran sen al,
W:se a Virgen mui santa
W:non fosse, que y chegar
W:con seu mant' estendudo
W:foi polo mur' anparar
W:que non fosse caudo.
W:
W:Todo logar mui ben...
W: 
W:E ben ali u deceu,
W:de Santos gran conpanna
W:con ela appareceu;
W:e ela mui sen sanna
W:o seu manto foi parar,
W:u muito recebudo
W:colb' ouve dos que y dar
W:fez o Soldan beyçudo.
W:
W:Todo logar mui ben...
W:
W:E aveo dessa vez
W:aos que combatian
W:que Deus por ssa Madre fez
W:que dali u ferian
W:os colbes, yan matar
W:daquel Soldan barvudo
W:as gentes, e arredar
W:do muro ja movudo.
W:
W:Todo logar mui ben...
W: 
W:Aquel Soldan, sen mentir,
W:cuidou que per abete
W:non querian envayr
W:os seus, e Mafomete
W:começou muit' a chamar,
W:o falsso connoçudo,
W:que os veess' ajudar;
W:mas foy y decebudo.
W:
W:Todo logar mui ben...
W: 
W:Ali u ergeu os seus
W:ollos contra o ceo,
W:viu log' a Madre de Deus,
W:coberta de seu veo,
W:sobela vila estar
W:con seu manto tendudo,
W:e as feridas fillar.
W:Pois est' ouve veudo,
W:
W:Todo logar mui ben...
W: 
W:Teve-sse por peccador,
W:ca viu que aquel feito
W:era de Nostro Sennor;
W:poren per niun preito
W:non quis conbater mandar,
W:e fez come sisudo,
W:e na vila foi entrar
W:dos seus desconnoçudo.
W:
W:Todo logar mui ben...
W:
W:Pera San German se foi
W:aquel Soldan pagão
W:e disse-lle: «Sennor, oi
W:mais me quer' eu crischão
W:per vossa mão tornar
W:e seer convertudo
W:e Mafomete leixar,
W:o falsso recreudo.
W:
W:Todo logar mui ben...
W: 
W:E o por que esto fiz,
W:direi-vo-lo aginna:
W:segundo vossa lei diz,
W:a mui santa Reinna
W:vi, que vos veo livrar;
W:pois m' est' apareçudo
W:foi, quero-me batiçar,
W:mas non seja sabudo.»
W:
W:Todo logar mui ben...
W:
W:oderia-vos de dur
W:dizer as grandes dõas
W:que aquel Soldan de Sur
W:deu y, ricas e bõas;
W:demais foy-os segurar
W:que non fosse corrudo
W:o reino, se Deus m' anpar,
W:e foi-lle gradeçudo.
W:
W:Todo logar mui ben...


%%landscape 0
